X:1
T:Title
%%score 1 2
L:1/8
Q:1/4=90
M:3/4
K:D
V:1 treble nm="Grand Piano, Soprano"
V:2 bass nm="Choir Pad, Mayotte, Charles J. Butler"
V:1
 D[DF]- [DF]/[EG]/ [FA]3 | [DF][EG]- [EG]/[FA]/ [GB]3- | [GB] [Gd]2 [Gc]3 | %3
w: By~Charles~J.~Butler,~1894 * * * *|||
 [GB][FA]- [FA]/[DF]/ [CE]3 | [EG][DF]- [DF]/[EG]/ [FA]3 | [FA][GB]- [GB]/[FA]/ [Fd]3- | %6
w: |||
 [Fd] [GB]2 [FA]3 | [DF][CE]- [CE]/[A,D]/ [A,D]3 | [FA][FA]- [FA]/[FA]/ [FA]3 | %9
w: |||
 [FA][GB]- [GB]/[FA]/ [Fd]3- | [Fd] [GB]2 [FA]3 | [DF][A,E]- [A,E]/[B,D]/ [CE]3 | %12
w: |||
 [EG][DF]- [DF]/[EG]/ [FA]3 | [FA][GB]- [GB]/[FA]/ [Fd]3- | [Fd] [GB]2 [FA]3 | %15
w: |||
 [DF][CE]- [CE]/[A,D]/ [A,D]3- | [A,D]4 z2 |] %17
w: ||
V:2
 [D,F,][D,A,]- [D,A,]/[D,A,]/ [D,D]3 | [D,A,][D,A,]- [D,A,]/[D,D]/ [G,D]3- | [G,D] [G,B,]2 [A,E]3 | %3
 [A,D][A,,A,]- [A,,A,]/[A,,A,]/ [A,,A,]3 | [C,A,][D,A,]- [D,A,]/[D,A,]/ [D,D]3 | %5
 [D,D][D,D]- [D,D]/[D,D]/ [D,D]3- | [D,D] [G,D]2 [A,D]3 | A,[A,,G,]- [A,,G,]/[D,F,]/ [D,F,]3 | %8
 [D,D][D,D]- [D,D]/[D,D]/ [D,D]3 | [D,D][D,D]- [D,D]/[D,D]/ [D,A,]3- | [D,A,] [D,D]2 [D,D]3 | %11
 [D,A,][C,A,]- [C,A,]/[B,,^G,]/ [A,,A,]3 | [C,A,][D,A,]- [D,A,]/[D,A,]/ [D,D]3 | %13
 [D,D][D,D]- [D,D]/[D,D]/ [D,D]3- | [D,D] [G,D]2 [A,D]3 | A,[A,,G,]- [A,,G,]/[D,F,]/ [D,F,]3- | %16
 [D,F,]4 z2 |] %17

